documentation/public/assets/images/textarea-02-dont.svg

<svg width="260" height="92" viewBox="0 0 260 92" fill="none" xmlns="http://www.w3.org/2000/svg">
<rect x="0.443686" y="1.32589" width="259.113" height="89.6246" rx="3.1058" fill="white"/>
<path d="M13.7744 17.9812L10.951 7.65539H12.2215L14.3794 16.0653H14.4803L16.6785 7.65539H18.0903L20.2885 16.0653H20.3894L22.5473 7.65539H23.8178L20.9944 17.9812H19.7037L17.4247 9.75281H17.3441L15.0651 17.9812H13.7744ZM24.7292 17.9812V10.2368H25.8787V11.4066H25.9594C26.1006 11.0234 26.356 10.7125 26.7258 10.4738C27.0955 10.2352 27.5123 10.1158 27.9761 10.1158C28.0635 10.1158 28.1728 10.1175 28.3039 10.1209C28.435 10.1242 28.5341 10.1293 28.6013 10.136V11.346C28.561 11.336 28.4686 11.3208 28.324 11.3007C28.1829 11.2771 28.0333 11.2654 27.8753 11.2654C27.4988 11.2654 27.1627 11.3444 26.8669 11.5023C26.5745 11.657 26.3426 11.8721 26.1711 12.1477C26.0031 12.42 25.9191 12.7309 25.9191 13.0805V17.9812H24.7292ZM30.0118 17.9812V10.2368H31.2017V17.9812H30.0118ZM30.6168 8.94611C30.3849 8.94611 30.1849 8.86712 30.0168 8.70914C29.8521 8.55116 29.7698 8.36125 29.7698 8.13941C29.7698 7.91757 29.8521 7.72765 30.0168 7.56967C30.1849 7.4117 30.3849 7.33271 30.6168 7.33271C30.8488 7.33271 31.0471 7.4117 31.2118 7.56967C31.3798 7.72765 31.4639 7.91757 31.4639 8.13941C31.4639 8.36125 31.3798 8.55116 31.2118 8.70914C31.0471 8.86712 30.8488 8.94611 30.6168 8.94611ZM36.749 10.2368V11.2452H32.7357V10.2368H36.749ZM33.9054 8.38142H35.0953V15.7627C35.0953 16.0989 35.144 16.351 35.2415 16.519C35.3423 16.6837 35.4701 16.7946 35.6247 16.8518C35.7827 16.9056 35.949 16.9325 36.1238 16.9325C36.2549 16.9325 36.3625 16.9257 36.4465 16.9123C36.5305 16.8955 36.5978 16.882 36.6482 16.872L36.8902 17.9408C36.8095 17.9711 36.6969 18.0013 36.5524 18.0316C36.4079 18.0652 36.2247 18.082 36.0028 18.082C35.6667 18.082 35.3373 18.0097 35.0146 17.8652C34.6953 17.7207 34.4298 17.5005 34.218 17.2047C34.0096 16.9089 33.9054 16.5358 33.9054 16.0854V8.38142ZM41.7027 18.1425C40.9565 18.1425 40.3128 17.9778 39.7716 17.6484C39.2338 17.3156 38.8187 16.8518 38.5263 16.2568C38.2372 15.6585 38.0927 14.9628 38.0927 14.1695C38.0927 13.3762 38.2372 12.6771 38.5263 12.0721C38.8187 11.4637 39.2254 10.9898 39.7464 10.6503C40.2708 10.3074 40.8825 10.136 41.5817 10.136C41.985 10.136 42.3833 10.2032 42.7766 10.3377C43.1699 10.4721 43.5278 10.6906 43.8505 10.9931C44.1732 11.2923 44.4303 11.6889 44.6219 12.183C44.8135 12.6771 44.9093 13.2855 44.9093 14.0082V14.5124H38.9397V13.4838H43.6993C43.6993 13.0468 43.6119 12.6569 43.4371 12.3141C43.2657 11.9712 43.0203 11.7007 42.701 11.5023C42.385 11.304 42.0119 11.2049 41.5817 11.2049C41.1077 11.2049 40.6977 11.3225 40.3515 11.5578C40.0086 11.7897 39.7447 12.0922 39.5599 12.4653C39.375 12.8384 39.2826 13.2384 39.2826 13.6653V14.351C39.2826 14.9359 39.3834 15.4317 39.5851 15.8384C39.7901 16.2417 40.0741 16.5493 40.4372 16.761C40.8002 16.9694 41.222 17.0736 41.7027 17.0736C42.0153 17.0736 42.2976 17.0299 42.5497 16.9425C42.8052 16.8518 43.0253 16.7173 43.2102 16.5392C43.3951 16.3577 43.5379 16.1325 43.6388 15.8636L44.7883 16.1863C44.6673 16.5762 44.464 16.919 44.1782 17.2148C43.8925 17.5072 43.5396 17.7358 43.1194 17.9005C42.6993 18.0618 42.227 18.1425 41.7027 18.1425ZM51.9024 13.3225V17.9812H50.7125V7.65539H51.9024V11.4469H52.0033C52.1848 11.0469 52.457 10.7293 52.82 10.494C53.1864 10.2553 53.6738 10.136 54.2822 10.136C54.8099 10.136 55.2721 10.2419 55.6687 10.4536C56.0653 10.662 56.3729 10.983 56.5914 11.4166C56.8132 11.8469 56.9241 12.3948 56.9241 13.0603V17.9812H55.7342V13.141C55.7342 12.5258 55.5746 12.0502 55.2553 11.7141C54.9393 11.3746 54.5007 11.2049 53.9393 11.2049C53.5494 11.2049 53.1999 11.2872 52.8906 11.4519C52.5847 11.6166 52.3427 11.857 52.1646 12.1729C51.9898 12.4889 51.9024 12.8721 51.9024 13.3225ZM62.3479 18.1425C61.6017 18.1425 60.9581 17.9778 60.4169 17.6484C59.8791 17.3156 59.464 16.8518 59.1716 16.2568C58.8825 15.6585 58.7379 14.9628 58.7379 14.1695C58.7379 13.3762 58.8825 12.6771 59.1716 12.0721C59.464 11.4637 59.8707 10.9898 60.3917 10.6503C60.916 10.3074 61.5278 10.136 62.2269 10.136C62.6303 10.136 63.0286 10.2032 63.4219 10.3377C63.8151 10.4721 64.1731 10.6906 64.4958 10.9931C64.8185 11.2923 65.0756 11.6889 65.2672 12.183C65.4588 12.6771 65.5546 13.2855 65.5546 14.0082V14.5124H59.585V13.4838H64.3445C64.3445 13.0468 64.2571 12.6569 64.0823 12.3141C63.9109 11.9712 63.6656 11.7007 63.3462 11.5023C63.0303 11.304 62.6572 11.2049 62.2269 11.2049C61.753 11.2049 61.3429 11.3225 60.9967 11.5578C60.6539 11.7897 60.39 12.0922 60.2051 12.4653C60.0203 12.8384 59.9278 13.2384 59.9278 13.6653V14.351C59.9278 14.9359 60.0287 15.4317 60.2303 15.8384C60.4354 16.2417 60.7194 16.5493 61.0824 16.761C61.4454 16.9694 61.8673 17.0736 62.3479 17.0736C62.6605 17.0736 62.9429 17.0299 63.195 16.9425C63.4504 16.8518 63.6706 16.7173 63.8555 16.5392C64.0403 16.3577 64.1832 16.1325 64.284 15.8636L65.4336 16.1863C65.3126 16.5762 65.1092 16.919 64.8235 17.2148C64.5378 17.5072 64.1849 17.7358 63.7647 17.9005C63.3446 18.0618 62.8723 18.1425 62.3479 18.1425ZM67.3646 17.9812V10.2368H68.5142V11.4066H68.5948C68.736 11.0234 68.9915 10.7125 69.3612 10.4738C69.7309 10.2352 70.1477 10.1158 70.6116 10.1158C70.699 10.1158 70.8082 10.1175 70.9393 10.1209C71.0704 10.1242 71.1696 10.1293 71.2368 10.136V11.346C71.1965 11.336 71.104 11.3208 70.9595 11.3007C70.8183 11.2771 70.6687 11.2654 70.5108 11.2654C70.1343 11.2654 69.7982 11.3444 69.5024 11.5023C69.2099 11.657 68.978 11.8721 68.8066 12.1477C68.6385 12.42 68.5545 12.7309 68.5545 13.0805V17.9812H67.3646ZM75.6585 18.1425C74.9123 18.1425 74.2686 17.9778 73.7275 17.6484C73.1897 17.3156 72.7746 16.8518 72.4821 16.2568C72.1931 15.6585 72.0485 14.9628 72.0485 14.1695C72.0485 13.3762 72.1931 12.6771 72.4821 12.0721C72.7746 11.4637 73.1813 10.9898 73.7023 10.6503C74.2266 10.3074 74.8384 10.136 75.5375 10.136C75.9409 10.136 76.3392 10.2032 76.7324 10.3377C77.1257 10.4721 77.4837 10.6906 77.8064 10.9931C78.129 11.2923 78.3862 11.6889 78.5778 12.183C78.7694 12.6771 78.8652 13.2855 78.8652 14.0082V14.5124H72.8956V13.4838H77.6551C77.6551 13.0468 77.5677 12.6569 77.3929 12.3141C77.2215 11.9712 76.9761 11.7007 76.6568 11.5023C76.3409 11.304 75.9678 11.2049 75.5375 11.2049C75.0636 11.2049 74.6535 11.3225 74.3073 11.5578C73.9644 11.7897 73.7006 12.0922 73.5157 12.4653C73.3308 12.8384 73.2384 13.2384 73.2384 13.6653V14.351C73.2384 14.9359 73.3393 15.4317 73.5409 15.8384C73.746 16.2417 74.03 16.5493 74.393 16.761C74.756 16.9694 75.1779 17.0736 75.6585 17.0736C75.9711 17.0736 76.2535 17.0299 76.5056 16.9425C76.761 16.8518 76.9812 16.7173 77.166 16.5392C77.3509 16.3577 77.4938 16.1325 77.5946 15.8636L78.7442 16.1863C78.6232 16.5762 78.4198 16.919 78.1341 17.2148C77.8484 17.5072 77.4954 17.7358 77.0753 17.9005C76.6551 18.0618 76.1829 18.1425 75.6585 18.1425Z" fill="#757575"/>
<rect x="0.443686" y="1.32589" width="259.113" height="89.6246" rx="3.1058" stroke="#545454" stroke-width="0.887372"/>
</svg>

<svg width="260" height="92" fill="none" xmlns="http://www.w3.org/2000/svg"><rect x=".44" y="1.33" width="259.11" height="89.62" rx="3.11" fill="#fff"/><path d="M13.77 17.98 10.95 7.66h1.27l2.16 8.4h.1l2.2-8.4h1.41l2.2 8.4h.1l2.16-8.4h1.27l-2.83 10.32H19.7l-2.28-8.23h-.08l-2.27 8.23h-1.3Zm10.96 0v-7.74h1.15v1.17h.08c.14-.39.4-.7.77-.94a2.3 2.3 0 0 1 1.25-.35 13.04 13.04 0 0 1 .62.02v1.2a3.55 3.55 0 0 0-.72-.07c-.38 0-.72.07-1.01.23a1.74 1.74 0 0 0-.95 1.58v4.9h-1.2Zm5.28 0v-7.74h1.2v7.74H30Zm.6-9.03a.85.85 0 0 1-.6-.24.76.76 0 0 1-.24-.57c0-.22.08-.41.25-.57a.85.85 0 0 1 .6-.24c.23 0 .43.08.6.24.16.16.24.35.24.57 0 .22-.08.41-.25.57a.83.83 0 0 1-.6.24Zm6.14 1.29v1h-4.01v-1h4ZM33.9 8.38h1.19v7.38c0 .34.04.6.14.76.1.16.23.27.38.33.16.06.33.08.5.08.13 0 .24 0 .33-.02l.2-.04.24 1.07a2.42 2.42 0 0 1-.89.14 2.4 2.4 0 0 1-.99-.21 1.96 1.96 0 0 1-.8-.67 1.9 1.9 0 0 1-.3-1.11v-7.7Zm7.8 9.76a3.32 3.32 0 0 1-3.18-1.89c-.3-.6-.44-1.29-.44-2.08 0-.8.15-1.5.44-2.1a3.28 3.28 0 0 1 3.06-1.94c.4 0 .8.07 1.19.2a2.96 2.96 0 0 1 1.84 1.85c.2.5.29 1.1.29 1.83v.5h-5.97v-1.03h4.76c0-.43-.09-.82-.26-1.17a1.98 1.98 0 0 0-1.86-1.1c-.47 0-.88.11-1.23.35-.34.23-.6.53-.79.9-.19.38-.28.78-.28 1.2v.7c0 .58.1 1.07.3 1.48.21.4.5.7.86.92.36.2.78.31 1.26.31.32 0 .6-.04.85-.13a1.7 1.7 0 0 0 1.09-1.08l1.15.33c-.12.39-.33.73-.61 1.02-.29.3-.64.53-1.06.7-.42.15-.9.23-1.42.23Zm10.2-4.82v4.66h-1.2V7.66h1.2v3.79h.1c.17-.4.45-.72.81-.96.37-.23.85-.35 1.46-.35.53 0 1 .1 1.39.31.4.21.7.53.92.97.22.43.33.97.33 1.64v4.92h-1.19v-4.84c0-.61-.16-1.09-.47-1.43a1.7 1.7 0 0 0-1.32-.5c-.4 0-.74.08-1.05.24-.3.17-.55.4-.73.72-.17.32-.26.7-.26 1.15Zm10.44 4.82a3.32 3.32 0 0 1-3.18-1.89 4.71 4.71 0 0 1-.43-2.08c0-.8.14-1.5.43-2.1a3.28 3.28 0 0 1 3.06-1.94c.4 0 .8.07 1.2.2a2.96 2.96 0 0 1 1.84 1.85c.19.5.28 1.1.28 1.83v.5H59.6v-1.03h4.75c0-.43-.08-.82-.26-1.17a1.98 1.98 0 0 0-1.85-1.1c-.48 0-.89.11-1.23.35-.35.23-.61.53-.8.9-.18.38-.27.78-.27 1.2v.7c0 .58.1 1.07.3 1.48.2.4.49.7.85.92.37.2.79.31 1.27.31.31 0 .6-.04.84-.13.26-.09.48-.22.67-.4.18-.18.32-.4.42-.68l1.15.33c-.12.39-.32.73-.6 1.02-.3.3-.65.53-1.07.7-.42.15-.89.23-1.41.23Zm5.01-.16v-7.74h1.15v1.17h.08c.15-.39.4-.7.77-.94.37-.23.79-.35 1.25-.35a13.03 13.03 0 0 1 .63.02v1.2a3.55 3.55 0 0 0-.73-.07c-.38 0-.71.07-1 .23a1.74 1.74 0 0 0-.95 1.58v4.9h-1.2Zm8.3.16a3.32 3.32 0 0 1-3.18-1.89 4.71 4.71 0 0 1-.43-2.08c0-.8.14-1.5.43-2.1a3.28 3.28 0 0 1 3.06-1.94c.4 0 .8.07 1.2.2a2.96 2.96 0 0 1 1.84 1.85c.19.5.29 1.1.29 1.83v.5H72.9v-1.03h4.76c0-.43-.1-.82-.27-1.17a1.98 1.98 0 0 0-1.85-1.1c-.48 0-.89.11-1.23.35a2.4 2.4 0 0 0-1.07 2.1v.7c0 .58.1 1.07.3 1.48.2.4.49.7.85.92.37.2.79.31 1.27.31.31 0 .6-.04.85-.13s.47-.22.66-.4c.18-.18.32-.4.42-.68l1.15.33c-.12.39-.32.73-.6 1.02-.3.3-.64.53-1.06.7-.42.15-.9.23-1.42.23Z" fill="#757575"/><rect x=".44" y="1.33" width="259.11" height="89.62" rx="3.11" stroke="#545454" stroke-width=".89"/></svg>
